X:431
L:1/8
M:6/8
K:G
 D | G2 G G2 G | G3 B2 A | G2 D D2 D | D3 (DFG) | A2 A A2 A | A3 G2 A | B2 A G2 D | G3- G (GA) | 
 G2 G G2 G | c3 B2 B | A2 A B2 G | G3 (DE) F | G2 G (GF) E | D2 C B,2 C | D2 D G2 F | G3- G2 G | 
 B3- B2 B | A3- A2 B | G2 G (GA) B | D3 (DE) F | G2 G (GF) E | D2 C B,2 C | D2 G G2 F | G3- G2 ||

